Origami/22x22/apps/4kslideshowmaker.svg

<svg width="22" height="22" version="1.1" viewBox="0 0 22 22" xmlns="http://www.w3.org/2000/svg">
 <path d="m7.5017287 3.5c-2.4485602 0-4.4978187 2.0502524-4.4978187 4.5 0 1.047756 0.4296316 1.981459 1.0502718 2.753906l-2.3543269 2.826172c-1.6259598 1.954033-0.2377456 4.918954 2.3035703 4.919922h13.993214c2.314304 0 3.756386-2.511547 2.590541-4.511719l-3.498303-5.9999998c-1.131148-1.9334132-3.904353-1.989561-5.112756-0.1035156-0.06638-2.3956572-2.0664289-4.3847656-4.4743923-4.3847656z" style="opacity:.2"/>
 <path d="M 7.5017287,3 C 5.0531685,3 3.00391,5.0502524 3.00391,7.5 c 0,1.047756 0.4296316,1.981459 1.0502718,2.753906 L 1.6998549,13.080078 C 0.07389515,15.034111 1.4621093,17.999032 4.0034252,18 H 17.996639 c 2.314304,0 3.756386,-2.511547 2.590541,-4.511719 L 17.088877,7.4882812 C 15.957729,5.554868 13.184524,5.4987202 11.976121,7.3847656 11.909741,4.9891084 9.9096921,3 7.5017287,3 Z" style="fill:#a1252b"/>
 <path d="m7.5 6.5c-0.8284271 0-1.5 0.6715729-1.5 1.5s0.6715729 1.5 1.5 1.5c0.8284272 0 1.5000001-0.6715729 1.5000001-1.5s-0.6715729-1.5-1.5000001-1.5zm7 3-2 3.5-2-1.5l-2.4999999 2.5-1.5000001-1.5-2.5 3h14z" style="opacity:.2"/>
 <path d="m7.5 6c-0.8284271 0-1.5 0.6715729-1.5 1.5s0.6715729 1.5 1.5 1.5c0.8284272 0 1.5000001-0.6715729 1.5000001-1.5s-0.6715729-1.5-1.5000001-1.5zm7 3-2 3.5l-2-1.5-2.4999999 2.5-1.5000001-1.5-2.5 3h14z" style="fill:#ffffff"/>
 <path d="m7.5019531 3c-2.4485602 0-4.4980468 2.0502524-4.4980468 4.5 0 0.087755 0.019503 0.1697321 0.025391 0.2558594 0.1329151-2.3382408 2.1074431-4.2558594 4.4726558-4.2558594 2.407963 0 4.4082299 1.9891084 4.4746089 4.3847656 1.208404-1.8860454 3.982134-1.8298975 5.113282 0.1035156l3.498047 5.9999998c0.224064 0.384414 0.348851 0.786768 0.392578 1.1875 0.03496-0.560507-0.07446-1.141728-0.392578-1.6875l-3.498047-5.9999998c-1.131148-1.9334131-3.904878-1.989561-5.113282-0.1035156-0.066379-2.3956572-2.0666459-4.3847656-4.4746089-4.3847656zm-3.6367186 7.482422-2.1660156 2.597656c-0.5380905 0.646662-0.74022465 1.402932-0.685547 2.126953 0.053442-0.563924 0.2708624-1.128597 0.685547-1.626953l2.3554686-2.826172c-0.069097-0.086-0.1254201-0.181553-0.189453-0.271484z" style="fill:#ffffff;opacity:.1"/>
</svg>

<svg xmlns="http://www.w3.org/2000/svg" width="22" height="22" version="1.1" viewBox="0 0 22 22">
 <path style="opacity:0.2" d="M 7.5017287,3.5 C 5.0531685,3.5 3.00391,5.5502524 3.00391,8 c 0,1.047756 0.4296316,1.981459 1.0502718,2.753906 L 1.6998549,13.580078 C 0.07389515,15.534111 1.4621093,18.499032 4.0034252,18.5 H 17.996639 c 2.314304,0 3.756386,-2.511547 2.590541,-4.511719 L 17.088877,7.9882812 C 15.957729,6.054868 13.184524,5.9987202 11.976121,7.8847656 11.909741,5.4891084 9.9096921,3.5 7.5017287,3.5 Z"/>
 <path style="fill:#a1252b" d="M 7.5017287,3 C 5.0531685,3 3.00391,5.0502524 3.00391,7.5 c 0,1.047756 0.4296316,1.981459 1.0502718,2.753906 L 1.6998549,13.080078 C 0.07389515,15.034111 1.4621093,17.999032 4.0034252,18 H 17.996639 c 2.314304,0 3.756386,-2.511547 2.590541,-4.511719 L 17.088877,7.4882812 C 15.957729,5.554868 13.184524,5.4987202 11.976121,7.3847656 11.909741,4.9891084 9.9096921,3 7.5017287,3 Z"/>
 <path style="opacity:0.2" d="M 7.5,6.5 C 6.6715729,6.5 6,7.1715729 6,8 6,8.8284271 6.6715729,9.5 7.5,9.5 8.3284272,9.5 9.0000001,8.8284271 9.0000001,8 9.0000001,7.1715729 8.3284272,6.5 7.5,6.5 Z m 7,3 -2,3.5 -2,-1.5 L 8.0000001,14 6.5,12.5 4,15.5 h 14 z"/>
 <path style="fill:#ffffff" d="M 7.5,6 C 6.6715729,6 6,6.6715729 6,7.5 6,8.3284271 6.6715729,9 7.5,9 8.3284272,9 9.0000001,8.3284271 9.0000001,7.5 9.0000001,6.6715729 8.3284272,6 7.5,6 Z m 7,3 -2,3.5 L 10.5,11 8.0000001,13.5 6.5,12 4,15 h 14 z"/>
 <path style="opacity:0.1;fill:#ffffff" d="M 7.5019531,3 C 5.0533929,3 3.0039063,5.0502524 3.0039063,7.5 c 0,0.087755 0.019503,0.1697321 0.025391,0.2558594 C 3.1622124,5.4176186 5.1367404,3.5 7.5019531,3.5 c 2.407963,0 4.4082299,1.9891084 4.4746089,4.3847656 1.208404,-1.8860454 3.982134,-1.8298975 5.113282,0.1035156 l 3.498047,5.9999998 c 0.224064,0.384414 0.348851,0.786768 0.392578,1.1875 0.03496,-0.560507 -0.07446,-1.141728 -0.392578,-1.6875 L 17.089844,7.4882812 C 15.958696,5.5548681 13.184966,5.4987202 11.976562,7.3847656 11.910183,4.9891084 9.9099161,3 7.5019531,3 Z m -3.6367186,7.482422 -2.1660156,2.597656 c -0.5380905,0.646662 -0.74022465,1.402932 -0.685547,2.126953 0.053442,-0.563924 0.2708624,-1.128597 0.685547,-1.626953 l 2.3554686,-2.826172 c -0.069097,-0.086 -0.1254201,-0.181553 -0.189453,-0.271484 z"/>
</svg>
